X: 3324
T: Familiedansen
B:[[Notböcker/Melodier til gamle danske Almuedanse for Violin solo]]
O:Danmark
Z:Søren Bak Vestergaard
M: 3/4
L: 1/8
K: D
A2|dddefd|aaafdf|gggece|d2 fd A2|dddefd|\
aaafdf|gggece|d2 z2:| |:!1!a2|!4!d'4 bb|b2 a2 a2|\
b4 aa|a2 !1!f2 f2|aaafdf|bbbgeg|aaagec|d2 z2:|
(:musicend:)
(:music:)
